Resources/UISymbols/processor_icon.svg

<?xml version="1.0" encoding="UTF-8" standalone="no"?>
<svg
   xmlns:dc="http://purl.org/dc/elements/1.1/"
   xmlns:cc="http://creativecommons.org/ns#"
   xmlns:rdf="http://www.w3.org/1999/02/22-rdf-syntax-ns#"
   xmlns:svg="http://www.w3.org/2000/svg"
   xmlns="http://www.w3.org/2000/svg"
   xmlns:sodipodi="http://sodipodi.sourceforge.net/DTD/sodipodi-0.dtd"
   xmlns:inkscape="http://www.inkscape.org/namespaces/inkscape"
   width="803"
   height="803"
   overflow="hidden"
   version="1.1"
   id="svg3867"
   sodipodi:docname="processor_icon.svg"
   inkscape:version="0.92.4 (5da689c313, 2019-01-14)">
  <metadata
     id="metadata3871">
    <rdf:RDF>
      <cc:Work
         rdf:about="">
        <dc:format>image/svg+xml</dc:format>
        <dc:type
           rdf:resource="http://purl.org/dc/dcmitype/StillImage" />
      </cc:Work>
    </rdf:RDF>
  </metadata>
  <sodipodi:namedview
     pagecolor="#ffffff"
     bordercolor="#666666"
     borderopacity="1"
     objecttolerance="10"
     gridtolerance="10"
     guidetolerance="10"
     inkscape:pageopacity="0"
     inkscape:pageshadow="2"
     inkscape:window-width="1920"
     inkscape:window-height="974"
     id="namedview3869"
     showgrid="false"
     inkscape:zoom="0.93524284"
     inkscape:cx="152.90146"
     inkscape:cy="399.74697"
     inkscape:window-x="-11"
     inkscape:window-y="-11"
     inkscape:window-maximized="1"
     inkscape:current-layer="svg3867" />
  <defs
     id="defs3805">
    <clipPath
       id="clip0">
      <rect
         x="1946"
         y="2784"
         width="803"
         height="803"
         id="rect3793" />
    </clipPath>
    <clipPath
       id="clip1">
      <path
         d="M1946.08 3185.51 2347.31 2784.28 2748.53 3185.51 2347.31 3586.73Z"
         fill-rule="evenodd"
         clip-rule="evenodd"
         id="path3796" />
    </clipPath>
    <clipPath
       id="clip2">
      <path
         d="M1946.08 3185.51 2347.31 2784.28 2748.53 3185.51 2347.31 3586.73Z"
         fill-rule="evenodd"
         clip-rule="evenodd"
         id="path3799" />
    </clipPath>
    <clipPath
       id="clip3">
      <path
         d="M1946.08 3185.51 2347.31 2784.28 2748.53 3185.51 2347.31 3586.73Z"
         fill-rule="evenodd"
         clip-rule="evenodd"
         id="path3802" />
    </clipPath>
  </defs>
  <g
     id="g3903"
     transform="matrix(1.4327875,0,0,1.4327875,-173.56062,-177.88553)">
    <g
       id="g3865"
       transform="translate(-1946,-2784)"
       clip-path="url(#clip0)">
      <g
         id="g3863"
         clip-path="url(#clip1)">
        <g
           id="g3861"
           clip-path="url(#clip2)">
          <g
             id="g3859"
             clip-path="url(#clip3)">
            <path
               id="path3807"
               d="m 2129.98,3285.81 29.25,-29.25 16.72,16.72 -29.25,29.25 z"
               inkscape:connector-curvature="0"
               style="fill:#215968;fill-opacity:0.89803999" />
            <path
               id="path3809"
               d="m 2096.54,3252.38 29.26,-29.26 16.72,16.72 -29.26,29.26 z"
               inkscape:connector-curvature="0"
               style="fill:#215968;fill-opacity:0.89803999" />
            <path
               id="path3811"
               d="m 2163.41,3319.25 29.26,-29.26 16.72,16.72 -29.26,29.26 z"
               inkscape:connector-curvature="0"
               style="fill:#215968;fill-opacity:0.89803999" />
            <path
               id="path3813"
               d="m 2263.72,3419.56 29.26,-29.26 16.71,16.72 -29.25,29.25 z"
               inkscape:connector-curvature="0"
               style="fill:#215968;fill-opacity:0.89803999" />
            <path
               id="path3815"
               d="m 2230.28,3386.12 29.26,-29.26 16.72,16.72 -29.26,29.26 z"
               inkscape:connector-curvature="0"
               style="fill:#215968;fill-opacity:0.89803999" />
            <path
               id="path3817"
               d="m 2196.85,3352.69 29.26,-29.26 16.71,16.72 -29.25,29.25 z"
               inkscape:connector-curvature="0"
               style="fill:#215968;fill-opacity:0.89803999" />
            <path
               id="path3819"
               d="m 2518.66,3097.74 29.26,-29.26 16.72,16.72 -29.26,29.26 z"
               inkscape:connector-curvature="0"
               style="fill:#215968;fill-opacity:0.89803999" />
            <path
               id="path3821"
               d="m 2552.1,3131.18 29.26,-29.26 16.71,16.72 -29.25,29.25 z"
               inkscape:connector-curvature="0"
               style="fill:#215968;fill-opacity:0.89803999" />
            <path
               id="path3823"
               d="m 2485.23,3064.31 29.26,-29.26 16.71,16.72 -29.25,29.25 z"
               inkscape:connector-curvature="0"
               style="fill:#215968;fill-opacity:0.89803999" />
            <path
               id="path3825"
               d="m 2384.92,2964 29.26,-29.26 16.72,16.72 -29.26,29.26 z"
               inkscape:connector-curvature="0"
               style="fill:#215968;fill-opacity:0.89803999" />
            <path
               id="path3827"
               d="m 2451.79,3030.87 29.26,-29.26 16.72,16.72 -29.26,29.26 z"
               inkscape:connector-curvature="0"
               style="fill:#215968;fill-opacity:0.89803999" />
            <path
               id="path3829"
               d="m 2418.36,2997.43 29.25,-29.25 16.72,16.72 -29.25,29.25 z"
               inkscape:connector-curvature="0"
               style="fill:#215968;fill-opacity:0.89803999" />
            <path
               id="path3831"
               d="m 2196.85,3018.33 16.72,-16.72 29.25,29.26 -16.71,16.72 z"
               inkscape:connector-curvature="0"
               style="fill:#215968;fill-opacity:0.89803999" />
            <path
               id="path3833"
               d="m 2263.72,2951.46 16.72,-16.72 29.25,29.26 -16.71,16.72 z"
               inkscape:connector-curvature="0"
               style="fill:#215968;fill-opacity:0.89803999" />
            <path
               id="path3835"
               d="m 2230.28,2984.9 16.72,-16.72 29.26,29.25 -16.72,16.72 z"
               inkscape:connector-curvature="0"
               style="fill:#215968;fill-opacity:0.89803999" />
            <path
               id="path3837"
               d="m 2163.41,3051.77 16.72,-16.72 29.26,29.26 -16.72,16.71 z"
               inkscape:connector-curvature="0"
               style="fill:#215968;fill-opacity:0.89803999" />
            <path
               id="path3839"
               d="m 2096.54,3118.64 16.72,-16.72 29.26,29.26 -16.72,16.71 z"
               inkscape:connector-curvature="0"
               style="fill:#215968;fill-opacity:0.89803999" />
            <path
               id="path3841"
               d="m 2129.98,3085.2 16.72,-16.72 29.25,29.26 -16.72,16.72 z"
               inkscape:connector-curvature="0"
               style="fill:#215968;fill-opacity:0.89803999" />
            <path
               id="path3843"
               d="m 2418.36,3373.58 16.72,-16.72 29.25,29.26 -16.72,16.72 z"
               inkscape:connector-curvature="0"
               style="fill:#215968;fill-opacity:0.89803999" />
            <path
               id="path3845"
               d="m 2384.92,3407.02 16.72,-16.72 29.26,29.26 -16.72,16.71 z"
               inkscape:connector-curvature="0"
               style="fill:#215968;fill-opacity:0.89803999" />
            <path
               id="path3847"
               d="m 2451.79,3340.15 16.72,-16.72 29.26,29.26 -16.72,16.71 z"
               inkscape:connector-curvature="0"
               style="fill:#215968;fill-opacity:0.89803999" />
            <path
               id="path3849"
               d="m 2485.23,3306.71 16.72,-16.72 29.25,29.26 -16.71,16.72 z"
               inkscape:connector-curvature="0"
               style="fill:#215968;fill-opacity:0.89803999" />
            <path
               id="path3851"
               d="m 2518.66,3273.28 16.72,-16.72 29.26,29.25 -16.72,16.72 z"
               inkscape:connector-curvature="0"
               style="fill:#215968;fill-opacity:0.89803999" />
            <path
               id="path3853"
               d="m 2552.1,3239.84 16.72,-16.72 29.25,29.26 -16.71,16.72 z"
               inkscape:connector-curvature="0"
               style="fill:#215968;fill-opacity:0.89803999" />
            <path
               id="path3855"
               d="m 2238.64,3185.51 108.67,-108.67 108.66,108.67 -108.66,108.66 z"
               inkscape:connector-curvature="0"
               style="fill:#215968;fill-opacity:0.89803999" />
            <path
               id="path3857"
               d="m 2330.59,2976.54 -192.25,192.25 c -9.24,9.23 -9.24,24.2 0,33.44 l 192.25,192.25 c 9.23,9.23 24.2,9.23 33.44,0 l 192.25,-192.25 c 9.23,-9.24 9.23,-24.21 0,-33.44 l -192.25,-192.25 c -9.24,-9.24 -24.21,-9.24 -33.44,0 z m 158.82,208.97 -142.1,142.1 -142.1,-142.1 142.1,-142.1 z"
               inkscape:connector-curvature="0"
               style="fill:#215968;fill-opacity:0.89803999" />
          </g>
        </g>
      </g>
    </g>
  </g>
</svg>

<svg width="803" height="803" xmlns="http://www.w3.org/2000/svg" xmlns:xlink="http://www.w3.org/1999/xlink" overflow="hidden"><defs><clipPath id="clip0"><rect x="1946" y="2784" width="803" height="803"/></clipPath><clipPath id="clip1"><path d="M1946.08 3185.51 2347.31 2784.28 2748.53 3185.51 2347.31 3586.73Z" fill-rule="evenodd" clip-rule="evenodd"/></clipPath><clipPath id="clip2"><path d="M1946.08 3185.51 2347.31 2784.28 2748.53 3185.51 2347.31 3586.73Z" fill-rule="evenodd" clip-rule="evenodd"/></clipPath><clipPath id="clip3"><path d="M1946.08 3185.51 2347.31 2784.28 2748.53 3185.51 2347.31 3586.73Z" fill-rule="evenodd" clip-rule="evenodd"/></clipPath></defs><g clip-path="url(#clip0)" transform="translate(-1946 -2784)"><g clip-path="url(#clip1)"><g clip-path="url(#clip2)"><g clip-path="url(#clip3)"><path d="M2129.98 3285.81 2159.23 3256.56 2175.95 3273.28 2146.7 3302.53Z" fill="#215968" fill-opacity="0.89804"/><path d="M2096.54 3252.38 2125.8 3223.12 2142.52 3239.84 2113.26 3269.1Z" fill="#215968" fill-opacity="0.89804"/><path d="M2163.41 3319.25 2192.67 3289.99 2209.39 3306.71 2180.13 3335.97Z" fill="#215968" fill-opacity="0.89804"/><path d="M2263.72 3419.56 2292.98 3390.3 2309.69 3407.02 2280.44 3436.27Z" fill="#215968" fill-opacity="0.89804"/><path d="M2230.28 3386.12 2259.54 3356.86 2276.26 3373.58 2247 3402.84Z" fill="#215968" fill-opacity="0.89804"/><path d="M2196.85 3352.69 2226.11 3323.43 2242.82 3340.15 2213.57 3369.4Z" fill="#215968" fill-opacity="0.89804"/><path d="M2518.66 3097.74 2547.92 3068.48 2564.64 3085.2 2535.38 3114.46Z" fill="#215968" fill-opacity="0.89804"/><path d="M2552.1 3131.18 2581.36 3101.92 2598.07 3118.64 2568.82 3147.89Z" fill="#215968" fill-opacity="0.89804"/><path d="M2485.23 3064.31 2514.49 3035.05 2531.2 3051.77 2501.95 3081.02Z" fill="#215968" fill-opacity="0.89804"/><path d="M2384.92 2964 2414.18 2934.74 2430.9 2951.46 2401.64 2980.72Z" fill="#215968" fill-opacity="0.89804"/><path d="M2451.79 3030.87 2481.05 3001.61 2497.77 3018.33 2468.51 3047.59Z" fill="#215968" fill-opacity="0.89804"/><path d="M2418.36 2997.43 2447.61 2968.18 2464.33 2984.9 2435.08 3014.15Z" fill="#215968" fill-opacity="0.89804"/><path d="M2196.85 3018.33 2213.57 3001.61 2242.82 3030.87 2226.11 3047.59Z" fill="#215968" fill-opacity="0.89804"/><path d="M2263.72 2951.46 2280.44 2934.74 2309.69 2964 2292.98 2980.72Z" fill="#215968" fill-opacity="0.89804"/><path d="M2230.28 2984.9 2247 2968.18 2276.26 2997.43 2259.54 3014.15Z" fill="#215968" fill-opacity="0.89804"/><path d="M2163.41 3051.77 2180.13 3035.05 2209.39 3064.31 2192.67 3081.02Z" fill="#215968" fill-opacity="0.89804"/><path d="M2096.54 3118.64 2113.26 3101.92 2142.52 3131.18 2125.8 3147.89Z" fill="#215968" fill-opacity="0.89804"/><path d="M2129.98 3085.2 2146.7 3068.48 2175.95 3097.74 2159.23 3114.46Z" fill="#215968" fill-opacity="0.89804"/><path d="M2418.36 3373.58 2435.08 3356.86 2464.33 3386.12 2447.61 3402.84Z" fill="#215968" fill-opacity="0.89804"/><path d="M2384.92 3407.02 2401.64 3390.3 2430.9 3419.56 2414.18 3436.27Z" fill="#215968" fill-opacity="0.89804"/><path d="M2451.79 3340.15 2468.51 3323.43 2497.77 3352.69 2481.05 3369.4Z" fill="#215968" fill-opacity="0.89804"/><path d="M2485.23 3306.71 2501.95 3289.99 2531.2 3319.25 2514.49 3335.97Z" fill="#215968" fill-opacity="0.89804"/><path d="M2518.66 3273.28 2535.38 3256.56 2564.64 3285.81 2547.92 3302.53Z" fill="#215968" fill-opacity="0.89804"/><path d="M2552.1 3239.84 2568.82 3223.12 2598.07 3252.38 2581.36 3269.1Z" fill="#215968" fill-opacity="0.89804"/><path d="M2238.64 3185.51 2347.31 3076.84 2455.97 3185.51 2347.31 3294.17Z" fill="#215968" fill-opacity="0.89804"/><path d="M2330.59 2976.54 2138.34 3168.79C2129.1 3178.02 2129.1 3192.99 2138.34 3202.23L2330.59 3394.48C2339.82 3403.71 2354.79 3403.71 2364.03 3394.48L2556.28 3202.23C2565.51 3192.99 2565.51 3178.02 2556.28 3168.79L2364.03 2976.54C2354.79 2967.3 2339.82 2967.3 2330.59 2976.54ZM2489.41 3185.51 2347.31 3327.61 2205.21 3185.51 2347.31 3043.41Z" fill="#215968" fill-opacity="0.89804"/></g></g></g></g></svg>
